public/avatar/body/87.svg

<svg xmlns:xlink="http://www.w3.org/1999/xlink" height="82" width="84.85" xmlns="http://www.w3.org/2000/svg"><g transform="translate(37.4 42.25)"><use height="38" transform="translate(-11.95 -17.45)" width="32.05" xlink:href="#a"/><use height="35.85" transform="translate(-11.85 -15.65)" width="32" xlink:href="#b"/><use height="37.8" transform="translate(2.15 -17.45)" width="18" xlink:href="#c"/><use height="7.55" transform="translate(-4.3 -14.65)" width="6.6" xlink:href="#d"/><use height="38.95" transform="translate(-12.45 -17.95)" width="33.05" xlink:href="#e"/></g><defs><use height="38" width="32.05" xlink:href="#f" id="a"/><use height="35.85" width="32" xlink:href="#g" id="b"/><use height="37.8" width="18" xlink:href="#h" id="c"/><use height="7.55" width="6.6" xlink:href="#i" id="d"/><use height="38.95" width="33.05" xlink:href="#j" id="e"/><path d="M27.35 7.4q2.15 4.15 3.55 8.75 1.45 4.7 1.15 9.5-.35 4.95-4.2 8.1-3.8 3.2-8.75 4.05l-2.6.2q-3.6 0-7.05-1.15-4.65-1.6-7.1-5.5Q-.2 27.4.05 23q.2-4.4 2-9.3Q3.85 8.75 7 5.05 10.1 1.3 14.7.1l1.8-.1q1.9.05 3.7.8 4.75 2.05 7.15 6.6" fill="#c90000" fill-rule="evenodd" transform="translate(-.05)" id="f"/><path d="m11.7 5.95 1.45 2 2.35 4.5 1.85 5.95.45 2.3.2 2.8q-.45 3.1-1.5 6.15l-1.5 2.5-.75.9-1.65 1.5-.4.3-2.55 1.45-4.75 1.25-2.9.25 2.7-1.2q1.5-.7 2.6-1.95 3.45-4.05 4.85-8.4l-.05-1.8Q11.8 15.4 6.9 7.5 5 4.4 2.6 1.7L0 .2 1.1 0l2.1.1 1.15.35 2.1.9 1.95 1.2.9.75 2.4 2.65" fill="#706452" fill-opacity=".302" fill-rule="evenodd" id="h"/><path d="M27.35 7.4Q24.95 2.85 20.2.8 17.55-.3 14.7.1 10.1 1.3 7 5.05q-3.15 3.7-4.95 8.65-1.8 4.9-2 9.3-.25 4.4 2.3 8.35 2.45 3.9 7.1 5.5 4.65 1.55 9.65.95 4.95-.85 8.75-4.05 3.85-3.15 4.2-8.1.3-4.8-1.15-9.5-1.4-4.6-3.55-8.75Z" fill="none" stroke="#333" stroke-linecap="round" stroke-linejoin="round" transform="translate(.45 .5)" id="j"/><g id="g" fill="#ffe100" fill-rule="evenodd"><path d="m6.45-17.05 4.4 3.55q0 1.1-1.35 2.25-2.65 2.2-9.2 2.2-10.5 0-10.9-2.7l3.35-4.2q2.05 1.5 6.8 1.5t6.9-2.6m6.95 9.6 1.95 5.65Q14.45-.45 12.1.9 7.45 3.55.4 3.55q-11.25 0-16.25-4l2.2-6.15q.25 1.1 2.15 2.15Q-7.75-2.3.3-2.3t11.35-2.55q1.7-1.3 1.75-2.6M.6 18.8q-9.05 0-13.45-5.35 4.8 3.6 13.65 3.6 8.85 0 14.15-6.05-1.3 1.95-3.8 3.9Q6.25 18.8.6 18.8" transform="translate(15.85 17.05)"/><path d="M.05 8.95q8.35 0 12.9-2.7 2.25-1.35 2.85-2.7l.35 2.95q-1 1.6-3.45 3.25-4.95 3.2-12.3 3.2-7.35 0-12.45-2.4-2.5-1.2-3.6-2.4l-.05-3.1q.6 1 2.85 1.95Q-8.3 8.95.05 8.95" transform="translate(15.85 17.05)"/></g><g id="i" fill="#fff" fill-rule="evenodd"><path d="M1.1 3q-.05.45.3.8 1.1 1.25 2.6.25 2.55-1.7.8-3.8Q4.6 0 4.3 0 1.2.25 1.1 3"/><path d="M.95 7.1q1 .7 2.35.3 1.35-.45 2.35-1.75.95-1.3.95-2.7Q6.65 1.5 5.7.8 4.75.05 3.4.5 2.05.9 1 2.25q-.95 1.3-1 2.7 0 1.4.95 2.15" fill-opacity=".502"/></g></defs></svg>

<?xml version="1.0" encoding="UTF-8" standalone="no"?>
<svg xmlns:xlink="http://www.w3.org/1999/xlink" height="82.0px" width="84.85px" xmlns="http://www.w3.org/2000/svg">
  <g transform="matrix(1.0, 0.0, 0.0, 1.0, 37.4, 42.25)">
    <use height="38.0" transform="matrix(1.0, 0.0, 0.0, 1.0, -11.95, -17.45)" width="32.05" xlink:href="#sprite0"/>
    <use height="35.85" transform="matrix(1.0, 0.0, 0.0, 1.0, -11.85, -15.65)" width="32.0" xlink:href="#sprite1"/>
    <use height="37.8" transform="matrix(1.0, 0.0, 0.0, 1.0, 2.15, -17.45)" width="18.0" xlink:href="#sprite2"/>
    <use height="7.55" transform="matrix(1.0, 0.0, 0.0, 1.0, -4.3, -14.65)" width="6.6" xlink:href="#sprite3"/>
    <use height="38.95" transform="matrix(1.0, 0.0, 0.0, 1.0, -12.45, -17.95)" width="33.05" xlink:href="#sprite4"/>
  </g>
  <defs>
    <g id="sprite0" transform="matrix(1.0, 0.0, 0.0, 1.0, -0.05, 0.0)">
      <use height="38.0" transform="matrix(1.0, 0.0, 0.0, 1.0, 0.05, 0.0)" width="32.05" xlink:href="#shape0"/>
    </g>
    <g id="shape0" transform="matrix(1.0, 0.0, 0.0, 1.0, -0.05, 0.0)">
      <path d="M27.35 7.4 Q29.5 11.55 30.9 16.15 32.35 20.85 32.05 25.65 31.7 30.6 27.85 33.75 24.05 36.95 19.1 37.8 L16.5 38.0 Q12.9 38.0 9.45 36.85 4.8 35.25 2.35 31.35 -0.2 27.4 0.05 23.0 0.25 18.6 2.05 13.7 3.85 8.75 7.0 5.05 10.1 1.3 14.7 0.1 L16.5 0.0 Q18.4 0.05 20.2 0.8 24.95 2.85 27.35 7.4" fill="#c90000" fill-rule="evenodd" stroke="none"/>
    </g>
    <g id="sprite1" transform="matrix(1.0, 0.0, 0.0, 1.0, 15.85, 17.05)">
      <use height="35.85" transform="matrix(1.0, 0.0, 0.0, 1.0, -15.85, -17.05)" width="32.0" xlink:href="#shape1"/>
    </g>
    <g id="shape1" transform="matrix(1.0, 0.0, 0.0, 1.0, 15.85, 17.05)">
      <path d="M6.45 -17.05 L10.85 -13.5 Q10.85 -12.4 9.5 -11.25 6.85 -9.05 0.3 -9.05 -10.2 -9.05 -10.6 -11.75 L-7.25 -15.95 Q-5.2 -14.45 -0.45 -14.45 4.3 -14.45 6.45 -17.05" fill="#ffe100" fill-rule="evenodd" stroke="none"/>
      <path d="M13.4 -7.45 L15.35 -1.8 Q14.45 -0.45 12.1 0.9 7.45 3.55 0.4 3.55 -10.85 3.55 -15.85 -0.45 L-13.65 -6.6 Q-13.4 -5.5 -11.5 -4.45 -7.75 -2.3 0.3 -2.3 8.35 -2.3 11.65 -4.85 13.35 -6.15 13.4 -7.45" fill="#ffe100" fill-rule="evenodd" stroke="none"/>
      <path d="M0.6 18.8 Q-8.45 18.8 -12.85 13.45 -8.05 17.05 0.8 17.05 9.65 17.05 14.95 11.0 13.65 12.95 11.15 14.9 6.25 18.8 0.6 18.8" fill="#ffe100" fill-rule="evenodd" stroke="none"/>
      <path d="M0.05 8.95 Q8.4 8.95 12.95 6.25 15.2 4.9 15.8 3.55 L16.15 6.5 Q15.15 8.1 12.7 9.75 7.75 12.95 0.4 12.95 -6.95 12.95 -12.05 10.55 -14.55 9.35 -15.65 8.15 L-15.7 5.05 Q-15.1 6.05 -12.85 7.0 -8.3 8.95 0.05 8.95" fill="#ffe100" fill-rule="evenodd" stroke="none"/>
    </g>
    <g id="sprite2" transform="matrix(1.0, 0.0, 0.0, 1.0, 0.0, 0.0)">
      <use height="37.8" transform="matrix(1.0, 0.0, 0.0, 1.0, 0.0, 0.0)" width="18.0" xlink:href="#shape2"/>
    </g>
    <g id="shape2" transform="matrix(1.0, 0.0, 0.0, 1.0, 0.0, 0.0)">
      <path d="M11.7 5.95 L13.15 7.95 15.5 12.45 17.35 18.4 17.8 20.7 18.0 23.5 Q17.55 26.6 16.5 29.65 L15.0 32.15 14.25 33.05 12.6 34.55 12.2 34.85 9.65 36.3 4.9 37.55 2.0 37.8 4.7 36.6 Q6.2 35.9 7.3 34.65 10.75 30.6 12.15 26.25 L12.1 24.45 Q11.8 15.4 6.9 7.5 5.0 4.4 2.6 1.7 L0.0 0.2 1.1 0.0 3.2 0.1 4.35 0.45 6.45 1.35 8.4 2.55 9.3 3.3 11.7 5.95" fill="#706452" fill-opacity="0.3019608" fill-rule="evenodd" stroke="none"/>
    </g>
    <g id="sprite3" transform="matrix(1.0, 0.0, 0.0, 1.0, 0.0, 0.0)">
      <use height="7.55" transform="matrix(1.0, 0.0, 0.0, 1.0, 0.0, 0.0)" width="6.6" xlink:href="#shape3"/>
    </g>
    <g id="shape3" transform="matrix(1.0, 0.0, 0.0, 1.0, 0.0, 0.0)">
      <path d="M1.1 3.0 Q1.05 3.45 1.4 3.8 2.5 5.05 4.0 4.05 6.55 2.35 4.8 0.25 4.6 0.0 4.3 0.0 1.2 0.25 1.1 3.0" fill="#ffffff" fill-rule="evenodd" stroke="none"/>
      <path d="M0.95 7.1 Q1.95 7.8 3.3 7.4 4.65 6.95 5.65 5.65 6.6 4.35 6.6 2.95 6.65 1.5 5.7 0.8 4.75 0.05 3.4 0.5 2.05 0.9 1.0 2.25 0.05 3.55 0.0 4.95 0.0 6.35 0.95 7.1" fill="#ffffff" fill-opacity="0.5019608" fill-rule="evenodd" stroke="none"/>
    </g>
    <g id="sprite4" transform="matrix(1.0, 0.0, 0.0, 1.0, 0.45, 0.5)">
      <use height="38.95" transform="matrix(1.0, 0.0, 0.0, 1.0, -0.45, -0.5)" width="33.05" xlink:href="#shape4"/>
    </g>
    <g id="shape4" transform="matrix(1.0, 0.0, 0.0, 1.0, 0.45, 0.5)">
      <path d="M27.35 7.4 Q24.95 2.85 20.2 0.8 17.55 -0.3 14.7 0.1 10.1 1.3 7.0 5.05 3.85 8.75 2.05 13.7 0.25 18.6 0.05 23.0 -0.2 27.4 2.35 31.35 4.8 35.25 9.45 36.85 14.1 38.4 19.1 37.8 24.05 36.95 27.85 33.75 31.7 30.6 32.05 25.65 32.35 20.85 30.9 16.15 29.5 11.55 27.35 7.4 Z" fill="none" stroke="#333333" stroke-linecap="round" stroke-linejoin="round" stroke-width="1.0"/>
    </g>
  </defs>
</svg>
